X:160
T:Reel 160
M:4/4
K:Amaj
L:1/8
AG|E>A, (3A,A,A, CB,A,D|E>A, (3A,A,A, A,2DC|D>B, (3B,B,B, GB,G,B,|DGFG DGFD|E>A, (3A,A,A, CDED|EA,A,C A2GA|BABG FEDC|B,CDE FDCA,A,2| (3CB,A, EA, FA,EA,| (3CB,A, EF FDD2|B,D=GD B,G,G,2|FDDE FB,DG| (3B,CB, A,D  (3DCD ED| (3CB,A, EA, FDEA,| (3B,CB, =GD B,ABA|GEFD B,A,A,|
